img/icons/icon-cuffs.svg

<?xml version="1.0" encoding="utf-8"?>
<!-- Generator: Adobe Illustrator 20.1.0, SVG Export Plug-In . SVG Version: 6.00 Build 0)  -->
<svg version="1.1" id="Layer_1" xmlns="http://www.w3.org/2000/svg" xmlns:xlink="http://www.w3.org/1999/xlink" x="0px" y="0px"
	 viewBox="0 0 119 108.9" style="enable-background:new 0 0 119 108.9;" xml:space="preserve">
<style type="text/css">
	.st0{fill:none;}
	.st1{fill:#FFFFFF;}
	.st2{fill:none;stroke:#434351;stroke-width:2;stroke-linecap:round;stroke-linejoin:round;}
</style>
<title>icon-nut</title>
<rect x="0" y="0" transform="matrix(1 -8.468954e-03 8.468954e-03 1 -0.4591 0.5059)" class="st0" width="119" height="108.9"/>
<rect x="0" y="0.1" transform="matrix(1 -8.468954e-03 8.468954e-03 1 -0.4594 0.5063)" class="st0" width="119.1" height="108.8"/>
<rect x="0" y="-0.2" transform="matrix(1 -8.468954e-03 8.468954e-03 1 -0.4582 0.5054)" class="st0" width="118.9" height="109.1"/>
<g>
	<path class="st1" d="M44.2,76.5c0,0,0.8,1,0.7,2.4c-0.1,1.5-1,1.8-1,1.8c0.5,0,0.7,0,0.8,0c0.8,0,1.7-0.1,1.7-0.1
		c3.7-0.5,7.1-2,9.9-4.4c-1-1.1-1.8-2.4-2.5-3.7C49.9,75.7,45,76.7,44.2,76.5z"/>
	<path class="st1" d="M88.7,58.7c-1.8-6.6-7-11.4-13.2-13.1c0-0.3,0-0.6-0.1-0.9l-2.5-9.1c-0.4-1.3-1.7-2-3-1.7l-10.6,2.9
		c-0.3-0.6-0.9-1.1-1.6-1.3l-13.7-3.3c-1.3-0.3-2.6,0.5-2.9,1.8L39,43.1c0,0.2-0.1,0.4-0.1,0.6c-0.8,0.2-1.5,0.5-2.2,0.8
		c0.1,0.3,0.3,0.7,0.5,1.1c0,0,0,0,0,0c-3.1,0.9-8.4-1.5-6.8,1.3c1.8,3.3-3.6,7.1-4.5,10.7c-2.4,10.1,3.9,20.2,14,22.6
		c1.1,0.3,2,1,3.3,0.8c1.4-0.3,1.6-2,1.6-2.7c0-0.7-0.9-2.2-1.6-2.3c-0.9-0.2-1.5,0.4-2.3,0.2C33,74.2,28.1,66.4,30,58.5
		c1.1-4.7,4.4-8.3,8.6-10.1c0,0,0,0,0,0c0.2,0.4,0.4,0.7,0.6,1c2.6-0.9,5.3-2.4,8.2-1.8c3.5,0.8,6.4,2.9,8.4,5.6
		c0.3-0.2,0.6-0.4,0.9-0.7c0.1,0,0.1,0.1,0.2,0.1c0,0,0,0,0,0c-2.3,2.2-8,2.7-5.4,4.4c3.2,2.1,0.2,8,1.2,11.5
		c2.8,10,13.2,15.9,23.2,13.1c1.1-0.3,2.2-0.1,3.2-0.9c1.1-0.9,0.4-2.5,0.1-3.1c-0.3-0.6-1.9-1.5-2.5-1.3c-0.9,0.3-1.1,1-1.9,1.3
		c-5.8,1.6-11.8-0.5-15.4-5c1.3-1.9,2.4-4.1,2.9-6.5c1-4.2,0.5-8.3-1.1-12c1.5-1.9,3.1-3.9,5.5-4.6c7.8-2.2,15.8,2.4,18,10.2
		c2.5,8.9-5.6,16.4-6.8,16.6c0,0,1.2,0.5,1.8,1.7c0.6,1.4,0,2.1,0,2.1c0.4-0.2,0.6-0.3,0.7-0.4c0.7-0.4,1.4-0.9,1.4-0.9
		C87.9,74.4,90.9,66.4,88.7,58.7z M41.4,78.3c0.1-0.4,0.6-0.7,1-0.6c0.5,0.1,0.8,0.5,0.7,1c-0.1,0.4-0.6,0.7-1,0.6
		C41.6,79.2,41.3,78.8,41.4,78.3z M76.9,78.4c0.5-0.1,0.9,0.1,1,0.5c0.1,0.4-0.2,0.9-0.6,1c-0.5,0.1-0.9-0.1-1-0.5
		C76.2,79,76.4,78.5,76.9,78.4z M50.9,41.1c-0.6,0.8-1.6,1.3-2.7,1c-1.4-0.3-2.2-1.7-1.9-3c0.3-1.4,1.7-2.2,3-1.9
		c0.9,0.2,1.6,0.9,1.9,1.8l0,0l3.4,0.8c0,0.2,0,0.4,0,0.6l-0.4,1.5L50.9,41.1z M59.8,54.8c-0.2-0.1-0.3-0.2-0.5-0.3c0,0,0,0,0,0
		c0,0,0,0,0,0C59.5,54.7,59.7,54.8,59.8,54.8z M60,54.9C59.9,54.9,59.9,54.9,60,54.9C59.9,54.9,59.9,54.9,60,54.9z M56.7,67.5
		c-1-3.6-0.5-7.3,1-10.5c0.9,2.5,1.1,5.4,0.4,8.2c-0.3,1.1-0.7,2.2-1.2,3.1C56.9,68.1,56.8,67.8,56.7,67.5z M66.6,42.2
		c-0.1,1-0.8,1.9-1.8,2.2c-1.3,0.4-2.7-0.4-3.1-1.8c-0.4-1.3,0.4-2.7,1.8-3.1c0.9-0.3,1.9,0,2.5,0.7l0,0l3.5-1l0.6,2L66.6,42.2z"/>
</g>
<path class="st2" d="M45.1,76.9c0.1-0.7-0.8-2.3-1.4-2.4c-0.9-0.2-1.5,0.3-2.3,0c-7.7-2.4-12.1-10.5-9.7-18.2c1.4-4.6,4.9-8,9.2-9.5
	c0.1,0,0.1-0.1,0.1-0.1s-1.3-2.9-1.3-2.8c-3.1,0.7-8.2-2-6.9,0.9c1.6,3.5-4.1,6.8-5.2,10.3c-3,9.9,2.5,20.5,12.5,23.5
	c1.1,0.3,1.9,1.1,3.2,1C44.7,79.3,45,77.6,45.1,76.9z M42.3,77.8c-0.5-0.1-0.7-0.6-0.6-1c0.1-0.4,0.6-0.6,1.1-0.5
	c0.5,0.1,0.7,0.6,0.6,1S42.8,78,42.3,77.8z"/>
<g>
	<path class="st2" d="M63.4,66c1.3-4.2,1-8.5-0.4-12.2c-0.3,0.3-0.6,0.6-0.9,0.9c-0.3-0.1-0.6-0.4-1-0.6c0,0,0,0,0,0
		c-0.6,0.7-1.2,1.4-1.7,2.2c0.8,2.7,0.9,5.6,0,8.5c-0.4,1.3-1,2.4-1.7,3.5c0.5,1.6,1.2,3,2.1,4.3C61.4,70.7,62.6,68.5,63.4,66z"/>
	<path class="st2" d="M49.6,46.5c3.5,1.1,6.2,3.3,8,6.1c0.3-0.2,0.7-0.4,0.9-0.6c0,0,0,0,0,0c-0.3-0.3-0.6-0.6-0.9-0.8
		c0.5-0.6,1.1-1.1,1.7-1.6c-0.1-0.2-0.1-0.4-0.2-0.5l-1.8-9.3c0-0.1,0-0.1,0-0.2L57,41.3l-3.4-1c-0.6,0.8-1.7,1.2-2.7,0.9
		c-1.3-0.4-2.1-1.8-1.7-3.2c0.4-1.3,1.8-2.1,3.2-1.7c0.9,0.3,1.6,1,1.7,1.9l0,0l3.4,1c0.1-1.1,0.8-2,2-2.3l3-0.6
		c-0.3-0.7-0.8-1.2-1.5-1.4l-13.5-4.1c-1.3-0.4-2.6,0.3-3,1.6l-2.8,9c-0.1,0.2-0.1,0.4-0.1,0.6c-0.8,0.2-1.5,0.4-2.3,0.6
		c0.5,1.3,1.3,3.9,2.1,5C44,47,46.9,45.7,49.6,46.5z"/>
	<path class="st2" d="M54.5,71.6c-4.1,3.1-9,3.8-9.8,3.5c0,0,0.8,1,0.6,2.4c-0.2,1.5-1.2,1.8-1.2,1.8c0.5,0,0.7,0,0.8,0
		c0.8,0,1.7,0,1.7,0c3.7-0.2,7.2-1.6,10.1-3.8C55.8,74.3,55.1,73,54.5,71.6z"/>
</g>
<path class="st2" d="M79.3,78.8c-0.3-0.6-1.8-1.6-2.4-1.4c-0.9,0.2-1.2,1-2,1.1c-7.9,1.7-15.6-3.4-17.3-11.3
	c-1-4.7,0.4-9.4,3.4-12.8c0,0,0.1-0.1,0.1-0.1s-2.5-1.9-2.5-1.9c-2.4,2.1-8.2,2.2-5.6,4.1c3.1,2.3-0.3,8,0.5,11.6
	c2.1,10.2,12.1,16.7,22.3,14.5c1.1-0.2,2.2,0.1,3.3-0.7C80.1,81.1,79.5,79.5,79.3,78.8z M77.3,80.9c-0.5,0.1-0.9-0.2-1-0.6
	c-0.1-0.4,0.2-0.9,0.7-0.9c0.5-0.1,0.9,0.2,1,0.6S77.7,80.8,77.3,80.9z"/>
<path class="st2" d="M77.9,46.3c0-0.3,0-0.6,0-0.9L76,36.1c-0.3-1.3-1.6-2.1-2.9-1.9l-13.8,2.9c-1.3,0.3-2.1,1.6-1.9,2.9l1.9,9.2
	c0,0.2,0.1,0.4,0.2,0.5c-0.6,0.5-1.2,1.1-1.7,1.6c1.1,0.9,3,2.8,4.3,3.4c1.9-1.9,3.8-4.5,6.6-5.1c7.9-1.7,15.6,3.4,17.3,11.3
	c1.9,9.1-6.6,16-7.9,16.1c0,0,1.2,0.5,1.7,1.8c0.6,1.4-0.2,2.1-0.2,2.1l0,0c0.4-0.2,0.6-0.3,0.7-0.4c0.7-0.4,1.4-0.8,1.5-0.9
	c6.4-4.1,9.9-11.8,8.3-19.7C88.8,53.5,84,48.3,77.9,46.3z M72.7,41.6l-3.5,0.7c-0.2,1-0.9,1.8-2,2.1c-1.4,0.3-2.7-0.6-3-2
	c-0.3-1.4,0.6-2.7,2-3c0.9-0.2,1.9,0.2,2.5,0.8l0,0l3.6-0.8L72.7,41.6z"/>
<ellipse transform="matrix(0.3382 -0.9411 0.9411 0.3382 8.269 72.3698)" class="st2" cx="55.6" cy="30.3" rx="2.9" ry="1.9"/>
<ellipse transform="matrix(0.9835 -0.1809 0.1809 0.9835 -4.7896 12.5076)" class="st2" cx="66.2" cy="32.5" rx="1.9" ry="2.9"/>
<path class="st2" d="M59,28.4c-1.4,0.4-2.8-0.1-3.1-1.2c-0.3-1.1,0.7-2.3,2.1-2.7c1.4-0.4,2.8,0.1,3.1,1.2
	C61.4,26.8,60.5,28,59,28.4z"/>
<path class="st2" d="M62.8,29.2c0.9,1.2,2.4,1.5,3.2,0.8c0.8-0.7,0.8-2.3-0.2-3.5c-0.9-1.2-2.4-1.5-3.2-0.8S61.8,28,62.8,29.2z"/>
<ellipse transform="matrix(0.1182 -0.993 0.993 0.1182 29.9747 82.8035)" class="st2" cx="61.6" cy="24.5" rx="2" ry="2.7"/>
<line class="st2" x1="11.8" y1="78" x2="107.5" y2="33.7"/>
<line class="st2" x1="13.4" y1="32.6" x2="105.3" y2="80.4"/>
</svg>

<?xml version="1.0" encoding="utf-8"?>
<svg id="Layer_1" style="enable-background:new 0 0 119 108.9;" x="0px" y="0px" viewBox="0 0 119 108.9" xmlns="http://www.w3.org/2000/svg">
  <style type="text/css">
	.st0{fill:none;}
	.st1{fill:#FFFFFF;}
	.st2{fill:none;stroke:#434351;stroke-width:2;stroke-linecap:round;stroke-linejoin:round;}
</style>
  <title>icon-nut</title>
  <rect x="0" y="0" transform="matrix(1 -8.468954e-03 8.468954e-03 1 -0.4591 0.5059)" class="st0" width="119" height="108.9"/>
  <rect x="0" y="0.1" transform="matrix(1 -8.468954e-03 8.468954e-03 1 -0.4594 0.5063)" class="st0" width="119.1" height="108.8"/>
  <rect x="0" y="-0.2" transform="matrix(1 -8.468954e-03 8.468954e-03 1 -0.4582 0.5054)" class="st0" width="118.9" height="109.1"/>
  <g>
    <path class="st1" d="M44.2,76.5c0,0,0.8,1,0.7,2.4c-0.1,1.5-1,1.8-1,1.8c0.5,0,0.7,0,0.8,0c0.8,0,1.7-0.1,1.7-0.1&#10;&#9;&#9;c3.7-0.5,7.1-2,9.9-4.4c-1-1.1-1.8-2.4-2.5-3.7C49.9,75.7,45,76.7,44.2,76.5z"/>
    <path class="st1" d="M88.7,58.7c-1.8-6.6-7-11.4-13.2-13.1c0-0.3,0-0.6-0.1-0.9l-2.5-9.1c-0.4-1.3-1.7-2-3-1.7l-10.6,2.9&#10;&#9;&#9;c-0.3-0.6-0.9-1.1-1.6-1.3l-13.7-3.3c-1.3-0.3-2.6,0.5-2.9,1.8L39,43.1c0,0.2-0.1,0.4-0.1,0.6c-0.8,0.2-1.5,0.5-2.2,0.8&#10;&#9;&#9;c0.1,0.3,0.3,0.7,0.5,1.1c0,0,0,0,0,0c-3.1,0.9-8.4-1.5-6.8,1.3c1.8,3.3-3.6,7.1-4.5,10.7c-2.4,10.1,3.9,20.2,14,22.6&#10;&#9;&#9;c1.1,0.3,2,1,3.3,0.8c1.4-0.3,1.6-2,1.6-2.7c0-0.7-0.9-2.2-1.6-2.3c-0.9-0.2-1.5,0.4-2.3,0.2C33,74.2,28.1,66.4,30,58.5&#10;&#9;&#9;c1.1-4.7,4.4-8.3,8.6-10.1c0,0,0,0,0,0c0.2,0.4,0.4,0.7,0.6,1c2.6-0.9,5.3-2.4,8.2-1.8c3.5,0.8,6.4,2.9,8.4,5.6&#10;&#9;&#9;c0.3-0.2,0.6-0.4,0.9-0.7c0.1,0,0.1,0.1,0.2,0.1c0,0,0,0,0,0c-2.3,2.2-8,2.7-5.4,4.4c3.2,2.1,0.2,8,1.2,11.5&#10;&#9;&#9;c2.8,10,13.2,15.9,23.2,13.1c1.1-0.3,2.2-0.1,3.2-0.9c1.1-0.9,0.4-2.5,0.1-3.1c-0.3-0.6-1.9-1.5-2.5-1.3c-0.9,0.3-1.1,1-1.9,1.3&#10;&#9;&#9;c-5.8,1.6-11.8-0.5-15.4-5c1.3-1.9,2.4-4.1,2.9-6.5c1-4.2,0.5-8.3-1.1-12c1.5-1.9,3.1-3.9,5.5-4.6c7.8-2.2,15.8,2.4,18,10.2&#10;&#9;&#9;c2.5,8.9-5.6,16.4-6.8,16.6c0,0,1.2,0.5,1.8,1.7c0.6,1.4,0,2.1,0,2.1c0.4-0.2,0.6-0.3,0.7-0.4c0.7-0.4,1.4-0.9,1.4-0.9&#10;&#9;&#9;C87.9,74.4,90.9,66.4,88.7,58.7z M41.4,78.3c0.1-0.4,0.6-0.7,1-0.6c0.5,0.1,0.8,0.5,0.7,1c-0.1,0.4-0.6,0.7-1,0.6&#10;&#9;&#9;C41.6,79.2,41.3,78.8,41.4,78.3z M76.9,78.4c0.5-0.1,0.9,0.1,1,0.5c0.1,0.4-0.2,0.9-0.6,1c-0.5,0.1-0.9-0.1-1-0.5&#10;&#9;&#9;C76.2,79,76.4,78.5,76.9,78.4z M50.9,41.1c-0.6,0.8-1.6,1.3-2.7,1c-1.4-0.3-2.2-1.7-1.9-3c0.3-1.4,1.7-2.2,3-1.9&#10;&#9;&#9;c0.9,0.2,1.6,0.9,1.9,1.8l0,0l3.4,0.8c0,0.2,0,0.4,0,0.6l-0.4,1.5L50.9,41.1z M59.8,54.8c-0.2-0.1-0.3-0.2-0.5-0.3c0,0,0,0,0,0&#10;&#9;&#9;c0,0,0,0,0,0C59.5,54.7,59.7,54.8,59.8,54.8z M60,54.9C59.9,54.9,59.9,54.9,60,54.9C59.9,54.9,59.9,54.9,60,54.9z M56.7,67.5&#10;&#9;&#9;c-1-3.6-0.5-7.3,1-10.5c0.9,2.5,1.1,5.4,0.4,8.2c-0.3,1.1-0.7,2.2-1.2,3.1C56.9,68.1,56.8,67.8,56.7,67.5z M66.6,42.2&#10;&#9;&#9;c-0.1,1-0.8,1.9-1.8,2.2c-1.3,0.4-2.7-0.4-3.1-1.8c-0.4-1.3,0.4-2.7,1.8-3.1c0.9-0.3,1.9,0,2.5,0.7l0,0l3.5-1l0.6,2L66.6,42.2z"/>
  </g>
  <path class="st2" d="M 45.1 76.9 C 45.2 76.2 44.3 74.6 43.7 74.5 C 42.8 74.3 42.2 74.8 41.4 74.5 C 33.7 72.1 29.3 64 31.7 56.3 C 33.1 51.7 36.6 48.3 40.9 46.8 C 41 46.8 41 46.7 41 46.7 C 41 46.7 39.7 43.8 39.7 43.9 C 36.6 44.6 31.5 41.9 32.8 44.8 C 34.4 48.3 28.7 51.6 27.6 55.1 C 24.6 65 30.1 75.6 40.1 78.6 C 41.2 78.9 42 79.7 43.3 79.6 C 44.7 79.3 45 77.6 45.1 76.9 Z"/>
  <g>
    <path class="st2" d="M63.4,66c1.3-4.2,1-8.5-0.4-12.2c-0.3,0.3-0.6,0.6-0.9,0.9c-0.3-0.1-0.6-0.4-1-0.6c0,0,0,0,0,0&#10;&#9;&#9;c-0.6,0.7-1.2,1.4-1.7,2.2c0.8,2.7,0.9,5.6,0,8.5c-0.4,1.3-1,2.4-1.7,3.5c0.5,1.6,1.2,3,2.1,4.3C61.4,70.7,62.6,68.5,63.4,66z"/>
    <path class="st2" d="M49.6,46.5c3.5,1.1,6.2,3.3,8,6.1c0.3-0.2,0.7-0.4,0.9-0.6c0,0,0,0,0,0c-0.3-0.3-0.6-0.6-0.9-0.8&#10;&#9;&#9;c0.5-0.6,1.1-1.1,1.7-1.6c-0.1-0.2-0.1-0.4-0.2-0.5l-1.8-9.3c0-0.1,0-0.1,0-0.2L57,41.3l-3.4-1c-0.6,0.8-1.7,1.2-2.7,0.9&#10;&#9;&#9;c-1.3-0.4-2.1-1.8-1.7-3.2c0.4-1.3,1.8-2.1,3.2-1.7c0.9,0.3,1.6,1,1.7,1.9l0,0l3.4,1c0.1-1.1,0.8-2,2-2.3l3-0.6&#10;&#9;&#9;c-0.3-0.7-0.8-1.2-1.5-1.4l-13.5-4.1c-1.3-0.4-2.6,0.3-3,1.6l-2.8,9c-0.1,0.2-0.1,0.4-0.1,0.6c-0.8,0.2-1.5,0.4-2.3,0.6&#10;&#9;&#9;c0.5,1.3,1.3,3.9,2.1,5C44,47,46.9,45.7,49.6,46.5z"/>
    <path class="st2" d="M54.5,71.6c-4.1,3.1-9,3.8-9.8,3.5c0,0,0.8,1,0.6,2.4c-0.2,1.5-1.2,1.8-1.2,1.8c0.5,0,0.7,0,0.8,0&#10;&#9;&#9;c0.8,0,1.7,0,1.7,0c3.7-0.2,7.2-1.6,10.1-3.8C55.8,74.3,55.1,73,54.5,71.6z"/>
  </g>
  <path class="st2" d="M 79.3 78.8 C 79 78.2 77.5 77.2 76.9 77.4 C 76 77.6 75.7 78.4 74.9 78.5 C 67 80.2 59.3 75.1 57.6 67.2 C 56.6 62.5 58 57.8 61 54.4 L 61.1 54.3 L 58.6 52.4 C 56.2 54.5 50.4 54.6 53 56.5 C 56.1 58.8 52.7 64.5 53.5 68.1 C 55.6 78.3 65.6 84.8 75.8 82.6 C 76.9 82.4 78 82.7 79.1 81.9 C 80.1 81.1 79.5 79.5 79.3 78.8 Z"/>
  <path class="st2" d="M77.9,46.3c0-0.3,0-0.6,0-0.9L76,36.1c-0.3-1.3-1.6-2.1-2.9-1.9l-13.8,2.9c-1.3,0.3-2.1,1.6-1.9,2.9l1.9,9.2&#10;&#9;c0,0.2,0.1,0.4,0.2,0.5c-0.6,0.5-1.2,1.1-1.7,1.6c1.1,0.9,3,2.8,4.3,3.4c1.9-1.9,3.8-4.5,6.6-5.1c7.9-1.7,15.6,3.4,17.3,11.3&#10;&#9;c1.9,9.1-6.6,16-7.9,16.1c0,0,1.2,0.5,1.7,1.8c0.6,1.4-0.2,2.1-0.2,2.1l0,0c0.4-0.2,0.6-0.3,0.7-0.4c0.7-0.4,1.4-0.8,1.5-0.9&#10;&#9;c6.4-4.1,9.9-11.8,8.3-19.7C88.8,53.5,84,48.3,77.9,46.3z M72.7,41.6l-3.5,0.7c-0.2,1-0.9,1.8-2,2.1c-1.4,0.3-2.7-0.6-3-2&#10;&#9;c-0.3-1.4,0.6-2.7,2-3c0.9-0.2,1.9,0.2,2.5,0.8l0,0l3.6-0.8L72.7,41.6z"/>
  <ellipse transform="matrix(0.3382 -0.9411 0.9411 0.3382 8.269 72.3698)" class="st2" cx="55.6" cy="30.3" rx="2.9" ry="1.9"/>
  <ellipse transform="matrix(0.9835 -0.1809 0.1809 0.9835 -4.7896 12.5076)" class="st2" cx="66.2" cy="32.5" rx="1.9" ry="2.9"/>
  <path class="st2" d="M59,28.4c-1.4,0.4-2.8-0.1-3.1-1.2c-0.3-1.1,0.7-2.3,2.1-2.7c1.4-0.4,2.8,0.1,3.1,1.2&#10;&#9;C61.4,26.8,60.5,28,59,28.4z"/>
  <path class="st2" d="M62.8,29.2c0.9,1.2,2.4,1.5,3.2,0.8c0.8-0.7,0.8-2.3-0.2-3.5c-0.9-1.2-2.4-1.5-3.2-0.8S61.8,28,62.8,29.2z"/>
  <ellipse transform="matrix(0.1182 -0.993 0.993 0.1182 29.9747 82.8035)" class="st2" cx="61.6" cy="24.5" rx="2" ry="2.7"/>
  <line class="st2" x1="11.8" y1="78" x2="107.5" y2="33.7"/>
  <line class="st2" x1="13.4" y1="32.6" x2="105.3" y2="80.4"/>
</svg>
